findly-builder/apps/searchassist/src/assets/images/pricing-plan/new-plan-pricing-img/search-assist-app-logo.svg

<svg width="56" height="56" viewBox="0 0 56 56" fill="none" xmlns="http://www.w3.org/2000/svg">
<path d="M55.5375 14.72V51.52C55.5375 52.496 55.1474 53.432 54.4531 54.1222C53.7587 54.8123 52.817 55.2 51.835 55.2H14.81C10.8821 55.2 7.11516 53.6491 4.33775 50.8886C1.56034 48.1281 0 44.384 0 40.48V14.72C0 10.816 1.56034 7.07192 4.33775 4.31139C7.11516 1.55085 10.8821 0 14.81 0L40.7275 0C44.6554 0 48.4223 1.55085 51.1997 4.31139C53.9772 7.07192 55.5375 10.816 55.5375 14.72Z" fill="#FAB900"/>
<path d="M42.579 38.6428L36.7476 32.8468C38.1465 30.7467 38.8874 28.2815 38.8765 25.7628C38.8765 23.2154 38.1165 20.7252 36.6925 18.6071C35.2686 16.489 33.2447 14.8381 30.8768 13.8632C28.5089 12.8884 25.9034 12.6333 23.3896 13.1303C20.8759 13.6273 18.5668 14.854 16.7545 16.6553C14.9422 18.4566 13.708 20.7516 13.208 23.2501C12.708 25.7485 12.9646 28.3383 13.9454 30.6918C14.9262 33.0453 16.5872 35.0569 18.7182 36.4721C20.8493 37.8874 23.3547 38.6428 25.9177 38.6428C28.4518 38.6537 30.9321 37.9173 33.0451 36.5268L38.8765 42.3228C39.3675 42.8108 40.0334 43.085 40.7277 43.085C41.4221 43.085 42.088 42.8108 42.579 42.3228C43.07 41.8348 43.3458 41.173 43.3458 40.4828C43.3458 39.7927 43.07 39.1308 42.579 38.6428ZM34.0447 30.1604C33.1876 31.712 31.9032 32.9885 30.3422 33.8404C28.9869 34.5811 27.4644 34.9674 25.9177 34.9628C24.087 34.9628 22.2974 34.4232 20.7752 33.4123C19.2531 32.4014 18.0667 30.9646 17.3661 29.2835C16.6655 27.6024 16.4822 25.7526 16.8393 23.968C17.1965 22.1834 18.0781 20.5441 19.3726 19.2574C20.6671 17.9708 22.3164 17.0946 24.1119 16.7396C25.9075 16.3846 27.7686 16.5668 29.46 17.2631C31.1513 17.9595 32.5969 19.1386 33.614 20.6516C34.6311 22.1645 35.174 23.9432 35.174 25.7628C35.1786 27.3001 34.79 28.8133 34.0447 30.1604Z" fill="white"/>
<path d="M27.2334 27.0683C26.9744 27.3278 26.6436 27.5047 26.2831 27.5766C25.9226 27.6485 25.5487 27.6121 25.2091 27.4719C24.8695 27.3318 24.5795 27.0943 24.3763 26.7897C24.173 26.4852 24.0656 26.1273 24.0677 25.7619C24.0677 25.2739 23.8727 24.8059 23.5255 24.4608C23.1783 24.1157 22.7075 23.9219 22.2165 23.9219C21.7255 23.9219 21.2546 24.1157 20.9075 24.4608C20.5603 24.8059 20.3652 25.2739 20.3652 25.7619C20.3662 26.8529 20.6924 27.9192 21.3028 28.8261C21.9131 29.7329 22.7801 30.4397 23.7943 30.8571C24.8085 31.2745 25.9244 31.3838 27.0011 31.1712C28.0778 30.9586 29.067 30.4337 29.8436 29.6627C30.1469 29.3107 30.3054 28.8579 30.2874 28.3948C30.2694 27.9317 30.0763 27.4925 29.7466 27.1648C29.4169 26.8371 28.9749 26.6451 28.509 26.6272C28.0431 26.6093 27.5875 26.7668 27.2334 27.0683Z" fill="white"/>
</svg>

<svg width="56" height="56" fill="none" xmlns="http://www.w3.org/2000/svg"><path d="M55.538 14.72v36.8a3.67 3.67 0 0 1-1.085 2.602 3.714 3.714 0 0 1-2.618 1.078H14.81c-3.928 0-7.695-1.55-10.472-4.311A14.675 14.675 0 0 1 0 40.48V14.72c0-3.904 1.56-7.648 4.338-10.409A14.856 14.856 0 0 1 14.81 0h25.917c3.928 0 7.695 1.55 10.473 4.311a14.674 14.674 0 0 1 4.337 10.409Z" fill="#FAB900"/><path d="m42.579 38.643-5.831-5.796a12.678 12.678 0 0 0 2.129-7.084c0-2.548-.76-5.038-2.184-7.156a12.942 12.942 0 0 0-5.816-4.744 13.033 13.033 0 0 0-7.487-.733 12.984 12.984 0 0 0-6.636 3.525 12.856 12.856 0 0 0-3.546 6.595c-.5 2.498-.243 5.088.737 7.442a12.897 12.897 0 0 0 4.773 5.78 13.015 13.015 0 0 0 7.2 2.17 12.86 12.86 0 0 0 7.127-2.115l5.831 5.796a2.626 2.626 0 0 0 3.703 0 2.594 2.594 0 0 0 0-3.68Zm-8.534-8.483a9.339 9.339 0 0 1-3.703 3.68 9.17 9.17 0 0 1-4.424 1.123c-1.831 0-3.62-.54-5.143-1.55a9.213 9.213 0 0 1-3.409-4.13 9.148 9.148 0 0 1-.527-5.315 9.184 9.184 0 0 1 2.534-4.71 9.274 9.274 0 0 1 4.739-2.518 9.31 9.31 0 0 1 5.348.523 9.245 9.245 0 0 1 4.154 3.389 9.16 9.16 0 0 1 1.56 5.11 9.027 9.027 0 0 1-1.13 4.398Z" fill="#fff"/><path d="M27.233 27.068a1.855 1.855 0 0 1-2.024.404 1.832 1.832 0 0 1-1.141-1.71c0-.488-.195-.956-.543-1.301a1.857 1.857 0 0 0-2.617 0 1.834 1.834 0 0 0-.543 1.3 5.496 5.496 0 0 0 .938 3.065 5.547 5.547 0 0 0 2.491 2.031 5.585 5.585 0 0 0 6.05-1.194 1.833 1.833 0 0 0-.097-2.498 1.857 1.857 0 0 0-2.514-.097Z" fill="#fff"/></svg>
